img/cup-outlined.svg

<svg fill="none" height="24" viewBox="0 0 24 24" width="24" xmlns="http://www.w3.org/2000/svg"><g fill="#1c8aa9"><path d="m14.1015 12.5649c.3208.2812.3568.767.0802 1.0851l-.1057.1216c-.2766.3181-.7609.348-1.0818.0668-.3208-.2812-.3568-.767-.0802-1.0851l.1057-.1216c.2766-.3181.7609-.348 1.0818-.0668z"/><path d="m16.4952 10.3187c.1625-.39174-.0233-.84104-.415-1.00356-.3918-.16252-.8411.02329-1.0036.41501-.1741.41975-.6239 1.26445-.9392 1.67535-.2581.3365-.1946.8186.1419 1.0767s.8185.1946 1.0767-.1418c.42-.5476.9308-1.5195 1.1392-2.0217z"/><path clip-rule="evenodd" d="m8.11641 14.9906c-2.02067-.093-3.50988-.9048-4.56393-2.1025-1.09705-1.2465-1.68049-2.8607-1.98224-4.37655-.38306-1.92432.97127-3.46434 2.66362-3.86746.00232-1.24267 1.04441-2.1917 2.25245-2.1917h11.06579c1.2069 0 2.2498.94736 2.2523 2.19204 1.6917.40364 3.0453 1.94331 2.6623 3.86712-.3017 1.51585-.8852 3.13005-1.9823 4.37655-1.0381 1.1796-2.4984 1.9849-4.4727 2.0978-.4709.4362-.9982.8021-1.587 1.0706.0567.3612.151.7809.293 1.2016.223.6609.5406 1.2564.9509 1.649.041.0393.077.0824.1077.1284.626.2605 1.066.878 1.066 1.5983 0 .9556-.7747 1.7304-1.7304 1.7304h-6.20885c-.9557 0-1.73044-.7748-1.73044-1.7304 0-.7309.45313-1.356 1.09378-1.6096.02897-.0418.06239-.081.10008-.1171.40919-.3916.72414-.9858.94456-1.6465.14652-.4393.24128-.8778.29612-1.2504-.54891-.2627-1.04446-.61-1.49074-1.0196zm-3.72268-8.80478c-.92522.2966-1.49099 1.15316-1.31726 2.02589.27377 1.37529.77902 2.69609 1.6289 3.66179.4978.5656 1.12857 1.0272 1.94254 1.3047-.17907-.2901-.34501-.5902-.49848-.8966-.9421-1.8813-1.48099-4.11571-1.7557-6.09578zm8.79897 8.68568c-.4447.0909-.7878.1391-1.1128.1484h-.0124c-2.0397 0-3.50233-1.3442-4.54485-3.426-1.04153-2.07985-1.56301-4.72503-1.75022-6.88259-.03218-.37089.26926-.72313.71388-.72313h11.06579c.4418 0 .7429.34817.7143.71722-.1671 2.15761-.6645 4.80533-1.6873 6.8873-.8241 1.6775-1.9242 2.8758-3.3864 3.2788zm-1.0894 1.6841c-.0277.0007-.0554.0012-.0832.0015-.3096.0031-.6142-.0198-.9349-.0682-.0695.3928-.1727.8242-.3173 1.2577-.1035.3102-.2318.6322-.3902.9474h3.2772c-.1589-.3142-.288-.6354-.3924-.9449-.146-.4325-.2508-.8633-.3215-1.2561-.2691.0396-.5482.061-.8377.0626zm5.3768-3.4096c.7702-.2802 1.3724-.7282 1.8514-1.2725.8499-.9657 1.3552-2.28652 1.629-3.66179.1729-.86878-.387-1.72158-1.3049-2.02185-.2575 1.9753-.7758 4.20264-1.698 6.07994-.147.2993-.306.5925-.4775.8762zm-2.3682 7.2931h-6.20885c-.1075 0-.19465.0872-.19465.1947s.08715.1946.19465.1946h6.20885c.1075 0 .1947-.0871.1947-.1946s-.0872-.1947-.1947-.1947z" fill-rule="evenodd"/></g></svg>

<svg width="24" height="24" viewBox="0 0 24 24" fill="none" xmlns="http://www.w3.org/2000/svg">
<path d="M14.1015 12.5649C14.4223 12.8461 14.4583 13.3319 14.1817 13.65L14.076 13.7716C13.7994 14.0897 13.3151 14.1196 12.9942 13.8384C12.6734 13.5572 12.6374 13.0714 12.914 12.7533L13.0197 12.6317C13.2963 12.3136 13.7806 12.2837 14.1015 12.5649Z" fill="#1C8AA9"/>
<path d="M16.4952 10.3187C16.6577 9.92696 16.4719 9.47766 16.0802 9.31514C15.6884 9.15262 15.2391 9.33843 15.0766 9.73015C14.9025 10.1499 14.4527 10.9946 14.1374 11.4055C13.8793 11.742 13.9428 12.2241 14.2793 12.4822C14.6158 12.7403 15.0978 12.6768 15.356 12.3404C15.776 11.7928 16.2868 10.8209 16.4952 10.3187Z" fill="#1C8AA9"/>
<path fill-rule="evenodd" clip-rule="evenodd" d="M8.11641 14.9906C6.09574 14.8976 4.60653 14.0858 3.55248 12.8881C2.45543 11.6416 1.87199 10.0274 1.57024 8.51155C1.18718 6.58723 2.54151 5.04721 4.23386 4.64409C4.23618 3.40142 5.27827 2.45239 6.48631 2.45239H17.5521C18.759 2.45239 19.8019 3.39975 19.8044 4.64443C21.4961 5.04807 22.8497 6.58774 22.4667 8.51155C22.165 10.0274 21.5815 11.6416 20.4844 12.8881C19.4463 14.0677 17.986 14.873 16.0117 14.9859C15.5408 15.4221 15.0135 15.788 14.4247 16.0565C14.4814 16.4177 14.5757 16.8374 14.7177 17.2581C14.9407 17.919 15.2583 18.5145 15.6686 18.9071C15.7096 18.9464 15.7456 18.9895 15.7763 19.0355C16.4023 19.296 16.8423 19.9135 16.8423 20.6338C16.8423 21.5894 16.0676 22.3642 15.1119 22.3642H8.90305C7.94735 22.3642 7.17261 21.5894 7.17261 20.6338C7.17261 19.9029 7.62574 19.2778 8.26639 19.0242C8.29536 18.9824 8.32878 18.9432 8.36647 18.9071C8.77566 18.5155 9.09061 17.9213 9.31103 17.2606C9.45755 16.8213 9.55231 16.3828 9.60715 16.0102C9.05824 15.7475 8.56269 15.4002 8.11641 14.9906ZM4.39373 6.18582C3.46851 6.48242 2.90274 7.33898 3.07647 8.21171C3.35024 9.587 3.85549 10.9078 4.70537 11.8735C5.20317 12.4391 5.83394 12.9007 6.64791 13.1782C6.46884 12.8881 6.3029 12.588 6.14943 12.2816C5.20733 10.4003 4.66844 8.16589 4.39373 6.18582ZM13.1927 14.8715C12.748 14.9624 12.4049 15.0106 12.0799 15.0199L12.0675 15.0199C10.0278 15.0199 8.56517 13.6757 7.52265 11.5939C6.48112 9.51405 5.95964 6.86887 5.77243 4.71131C5.74025 4.34042 6.04169 3.98818 6.48631 3.98818H17.5521C17.9939 3.98818 18.295 4.33635 18.2664 4.7054C18.0993 6.86301 17.6019 9.51073 16.5791 11.5927C15.755 13.2702 14.6549 14.4685 13.1927 14.8715ZM12.1033 16.5556C12.0756 16.5563 12.0479 16.5568 12.0201 16.5571C11.7105 16.5602 11.4059 16.5373 11.0852 16.4889C11.0157 16.8817 10.9125 17.3131 10.7679 17.7466C10.6644 18.0568 10.5361 18.3788 10.3777 18.694H13.6549C13.496 18.3798 13.3669 18.0586 13.2625 17.7491C13.1165 17.3166 13.0117 16.8858 12.941 16.493C12.6719 16.5326 12.3928 16.554 12.1033 16.5556ZM17.4801 13.146C18.2503 12.8658 18.8525 12.4178 19.3315 11.8735C20.1814 10.9078 20.6867 9.58698 20.9605 8.21171C21.1334 7.34293 20.5735 6.49013 19.6556 6.18986C19.3981 8.16516 18.8798 10.3925 17.9576 12.2698C17.8106 12.5691 17.6516 12.8623 17.4801 13.146ZM15.1119 20.4391H8.90305C8.79555 20.4391 8.7084 20.5263 8.7084 20.6338C8.7084 20.7413 8.79555 20.8284 8.90305 20.8284H15.1119C15.2194 20.8284 15.3066 20.7413 15.3066 20.6338C15.3066 20.5263 15.2194 20.4391 15.1119 20.4391Z" fill="#1C8AA9"/>
</svg>
